svgs/mobikwik.svg

<?xml version="1.0" encoding="UTF-8" standalone="no"?>
<svg
   id="vector"
   width="72"
   height="72"
   viewBox="0 0 11.153 4.268"
   version="1.1"
   sodipodi:docname="mobikwik.svg"
   inkscape:version="1.2.1 (9c6d41e410, 2022-07-14)"
   xmlns:inkscape="http://www.inkscape.org/namespaces/inkscape"
   xmlns:sodipodi="http://sodipodi.sourceforge.net/DTD/sodipodi-0.dtd"
   xmlns="http://www.w3.org/2000/svg"
   xmlns:svg="http://www.w3.org/2000/svg">
  <defs
     id="defs8" />
  <sodipodi:namedview
     id="namedview6"
     pagecolor="#ffffff"
     bordercolor="#000000"
     borderopacity="0.25"
     inkscape:showpageshadow="2"
     inkscape:pageopacity="0.0"
     inkscape:pagecheckerboard="0"
     inkscape:deskcolor="#d1d1d1"
     showgrid="false"
     showguides="true"
     inkscape:zoom="4"
     inkscape:cx="-10.875"
     inkscape:cy="15.75"
     inkscape:window-width="1920"
     inkscape:window-height="1009"
     inkscape:window-x="-8"
     inkscape:window-y="-8"
     inkscape:window-maximized="1"
     inkscape:current-layer="vector">
    <sodipodi:guide
       position="-16.183472,2.5389766"
       orientation="1,0"
       id="guide456"
       inkscape:locked="false" />
  </sodipodi:namedview>
  <path
     fill="#000000"
     d="m 10.791,1.273 c -0.0016,-0.65625725 -1.0742591,0.4189981 -0.418,0.419 0.231246,7e-7 0.418553,-0.1877545 0.418,-0.419 z M 8.829,-1.161 8.194,5.231 c 0.143,0.017 0.363,0 0.402,-0.225 0.061,-0.343 0.585,-5.695 0.585,-5.695 0,0 0.096,-0.252 -0.357,-0.472 z m 1.468,3.319 c 0,0 -0.363,0.106 -0.835,0.187 L 9.167,5.187 c 0,0 -0.04,0.605 -0.485,0.605 H 8.143 L 8.137,5.854 c 0,0 -0.067,0.417 -0.43,0.471 -0.363,0.054 -7.391,0 -7.391,0 0,0 -0.297,-0.054 -0.31,-0.332 -0.013,-0.278 0,-6.004 0,-6.004 0.07037944,-0.23035618 0.27149218,-0.39644146 0.511,-0.422 0.162,-0.021 1.38,-0.221 2.814,-0.46 L 3.81,-1.801 c 0.188075,-0.3379315 0.6501807,-0.3724706 0.8901484,-0.08985 0.016757,0.019735 0.4562173,0.6766974 0.4706387,0.6995301 C 5.1522813,-1.2113982 4.7085607,-1.865561 4.6874165,-1.8823401 4.6071095,-1.9460684 4.5093389,-1.9852302 4.406,-1.994 H 4.357 C 4.159367,-1.9944697 3.9776981,-1.8855454 3.885,-1.711 L 0.354,4.995 C 0.06141245,5.6105776 0.95304845,6.0810055 1.296,5.492 L 3.838,0.665 v 3.987 c 5.503e-4,0.2902735 0.2357265,0.5254497 0.526,0.526 0.328,0 0.545,-0.409 0.563,-0.447 L 6.325,2.034 v 2.333 c 0.029267,0.6707608 1.0217326,0.6707608 1.051,0 V -0.127 C 7.3764415,-0.70611295 6.5765545,-0.8592996 6.363,-0.321 L 6.355,-0.308 4.983,2.34 4.646,3.048 4.889,2.168 v -3.32 c 1.809,-0.302 3.49,-0.585 3.49,-0.585 0,0 0.445,-0.108 0.472,0.363 l -0.02,0.199 c 0.152,-0.033 0.871,-0.157 0.92,0.454 L 9.65,0.731 c 0,0 0.123,0.091 0.66,-0.12 0,0 0.754,-0.3 0.835,0.448 0,0 0.146,0.766 -0.849,1.106 z m 0.309,-0.882 c 0,0.3659955 -0.598996,-0.233 -0.233,-0.233 0.127905,-4.7e-6 0.231902,0.1030994 0.233,0.231 z"
     stroke-width="0.0697086"
     stroke="#00000000"
     id="path_0"
     sodipodi:nodetypes="ssscccccccccsccscsccccscsccccccccccccccccccccccccccccsccs"
     style="fill:#000000;fill-opacity:0.75" />
  <path
     fill="#000000"
     d="m 8.1367779,5.8539839 c 0,0 -0.067,0.417 -0.43,0.471 -0.3630001,0.054 -7.39100012,0 -7.39100012,0 0,0 -0.297,-0.054 -0.31,-0.332 -0.013,-0.278 0,-6.00400001 0,-6.00400001 0.070379,-0.2303562 0.2714922,-0.3964415 0.511,-0.422 0.162,-0.021 1.38000012,-0.221 2.81400012,-0.46 l 0.479,-0.90799999 c 0.188075,-0.3379315 0.6501807,-0.3724706 0.8901484,-0.08985 0.016757,0.019735 0.4562173,0.6766974 0.4706387,0.6995301 C 5.152059,-1.211414 4.7083386,-1.8655771 4.6871944,-1.8823562 4.6068874,-1.9460842 4.5091168,-1.9852463 4.4057779,-1.9940161 h -0.049 c -0.197633,-4.697e-4 -0.3793019,0.1084546 -0.472,0.283 l -3.53100012,6.706 c -0.2925875,0.6155776 0.5990485,1.0860055 0.94200012,0.497 l 2.542,-4.82700001 V 4.6519839 c 5.503e-4,0.2902735 0.2357265,0.5254497 0.526,0.526 0.328,0 0.545,-0.409 0.563,-0.447 l 1.3979999,-2.697 v 2.333 c 0.029267,0.6707608 1.0217326,0.6707608 1.051,0 v -4.49399991 c 4.415e-4,-0.579113 -0.7994455,-0.7322996 -1.013,-0.194 l -0.008,0.013 -1.3719999,2.64800001 -0.337,0.708 0.243,-0.88 v -3.32 c 1.8089999,-0.302 3.4899999,-0.585 3.4899999,-0.585 0,0 0.445,-0.108 0.4720001,0.363"
     stroke-width="0.0697086"
     stroke="#00000000"
     id="path_0-7"
     sodipodi:nodetypes="cscsccccscsccccccccccccccccccccc" />
</svg>

<svg id="vector" xmlns="http://www.w3.org/2000/svg" width="72" height="72" viewBox="0 0 11.153 4.268"><path fill="#000" d="m10.791,1.273a0.418,0.418 0,1 0,-0.418 0.419,0.418 0.418,0 0,0 0.418,-0.419zM8.829,-1.161L8.194,5.231c0.143,0.017 0.363,0 0.402,-0.225 0.061,-0.343 0.585,-5.695 0.585,-5.695 0,0 0.096,-0.252 -0.357,-0.472zM10.297,2.158c0,0 -0.363,0.106 -0.835,0.187l-0.295,2.842c0,0 -0.04,0.605 -0.485,0.605h-0.539l-0.006,0.062c0,0 -0.067,0.417 -0.43,0.471 -0.363,0.054 -7.391,0 -7.391,0 0,0 -0.297,-0.054 -0.31,-0.332 -0.013,-0.278 0,-6.004 0,-6.004a0.601,0.601 0,0 1,0.511 -0.422c0.162,-0.021 1.38,-0.221 2.814,-0.46l0.479,-0.908a0.545,0.545 0,0 1,0.937 -0.026,0.524 0.524,0 0,0 -0.341,-0.167h-0.049a0.533,0.533 0,0 0,-0.472 0.283l-3.531,6.706a0.533,0.533 0,0 0,0.942 0.497l2.542,-4.827v3.987a0.527,0.527 0,0 0,0.526 0.526c0.328,0 0.545,-0.409 0.563,-0.447l1.398,-2.697v2.333a0.526,0.526 0,0 0,1.051 0v-4.494a0.525,0.525 0,0 0,-1.013 -0.194l-0.008,0.013 -1.372,2.648 -0.337,0.708 0.243,-0.88v-3.32c1.809,-0.302 3.49,-0.585 3.49,-0.585 0,0 0.445,-0.108 0.472,0.363l-0.02,0.199c0.152,-0.033 0.871,-0.157 0.92,0.454l-0.101,1.452c0,0 0.123,0.091 0.66,-0.12 0,0 0.754,-0.3 0.835,0.448 0,0 0.146,0.766 -0.849,1.106zM10.606,1.276a0.233,0.233 0,1 1,-0.233 -0.233,0.233 0.233,0 0,1 0.233,0.231z" stroke-width="0.0697086" stroke="#00000000" id="path_0"/><path fill="#000" d="m0.054,-2.411l11.053,-0.136v0" stroke-linejoin="round" stroke-width="0.00015491" fill-rule="evenodd" stroke="#000" stroke-linecap="round" id="path_1"/><path fill="#000" d="m0.027,7.013l11.053,-0.081" stroke-linejoin="round" stroke-width="0.000154908" fill-rule="evenodd" stroke="#000" stroke-linecap="round" id="path_2"/></svg>
